!!!COM: Haydn, Franz Joseph
!!!OTL: String Quartet in E-flat major
!!!OPS: Opus 09
!!!ONM: No. 2
!!!OMD: Adagio
!!!OMV: 3
!!!SCT: H /disk/dos2/musedata_2000/haydn/traut/quart/op09n2/stage1/03a
!!!SCA: Thematisch-bibliographisches Werkevererzeichnis (A. van Hoboken)
!!!YOR: Trautwein Edition
!!!ENC: Frances Bennion
!!!CDT: 1732/3/31/-1809/5/31/
!!!CNT: Oesterreich
!!!YEC: Copyright (c) 1994, 2000 Center for Computer Assisted Research in the Humanities
!!!YEM: Rights to all derivative editions reserved.
!!!YEM: Refer to licensing agreement for further details.
!!!YEN: United States of America
**kern	**kern	**kern	**kern
*k[b-e-a-]	*k[b-e-a-]	*k[b-e-a-]	*k[b-e-a-]
*c:	*c:	*c:	*c:
*clefF4	*clefC3	*clefG	*clefG
*M4/4	*M4/4	*M4/4	*M4/4
*MM50	*MM50	*MM50	*MM50
[1C	8r	4r	4.r
.	[8E-	.	.
.	2.E-_	[2.G	.
.	.	.	8B
.	.	.	8c
.	.	.	8e-
.	.	.	8g
.	.	.	8b
=2	=2	=2	=2
2C]	2E-]	2G]	8cc
.	.	.	8ee-
.	.	.	8dd
.	.	.	8cc
8r	4r	4.r	2cc
[4.D	.	.	.
.	[4F	.	.
.	.	[8A-	.
=3	=3	=3	=3
1D_	2F_	2A-_	8b
.	.	.	8B
.	.	.	8d
.	.	.	8f
.	2F_	2A-_	8a-
.	.	.	8b
.	.	.	8dd
.	.	.	8ff
=4	=4	=4	=4
2D]	2F]	2A-]	8.aa-
.	.	.	48gg
.	.	.	48aa-
.	.	.	48bb-
.	.	.	8.aa-
.	.	.	48gg
.	.	.	48aa-
.	.	.	48bb-
2r	2r	2r	4aa-
.	.	.	8gg
.	.	.	8b
=5	=5	=5	=5
4r	4r	4.r	2dd
4.E-	4.G	.	.
.	.	8B	.
.	.	8c	8cc
4.r	4.r	4.r	16r
.	.	.	16G
.	.	.	16c
.	.	.	16e-
.	.	.	16g
.	.	.	16b
=6	=6	=6	=6
2r	2.r	2..r	16cc
.	.	.	16dd
.	.	.	16ee-
.	.	.	16ff#
.	.	.	16gg
.	.	.	16bb
.	.	.	16ccc
.	.	.	16bb
8r	.	.	[2ccc
[4AA-	.	.	.
.	4c	.	.
8AA-_	.	8e-	.
=7	=7	=7	=7
2AA-_	2e-	[2f#	8ccc]
.	.	.	8cc
.	.	.	8cc
.	.	.	8cc
8AA-]	8c	8f#]	4ee-
4.r	4.r	4.r	.
.	.	.	8dd
.	.	.	8cc
=8	=8	=8	=8
4r	4r	4.r	2cc
4.GG	4.d	.	.
.	.	8f#	.
.	.	8g	4b
4.r	4.r	4.r	.
.	.	.	4r
=9	=9	=9	=9
*M3/4	*M3/4	*M3/4	*M3/4
8C	8r	8r	2gg
8r	8e-	8g	.
8C	8r	8r	.
8r	8e-	8g	.
8C	8r	8r	16ff
.	.	.	16ee-
8r	8e-	8g	16dd
.	.	.	16cc
=10	=10	=10	=10
8D	8r	8r	8b
8r	8B	8f	8aa-
8D	8r	8r	4.aa-
8r	8B	8f	.
8D	8r	8r	.
8r	8B	8f	8b
=11	=11	=11	=11
8E-	8r	8r	8cc
8r	8c	8g	32cc
.	.	.	32b
.	.	.	32cc
.	.	.	32dd
8E-	8r	8r	8ee-
8r	8c	8g	8cc
8E-	8r	8r	8g
8r	8c	8g	8cc
=12	=12	=12	=12
8F	8r	8r	8a-
8r	8c	8a-	16g
.	.	.	16f
8G	8r	8r	8.e-
8r	8c	8e-	.
.	.	.	32d
.	.	.	32e-
8GG	8r	8r	16f
.	.	.	16d
8r	8d	8f	16c
.	.	.	16B
=13	=13	=13	=13
8C	8r	8r	8.c
8r	8c	8e-	.
.	.	.	32B
.	.	.	32c
8C	8r	8r	8G
8r	8e-	8g	4.r
8G	8r	8r	.
8r	8d	8f	.
=14	=14	=14	=14
8C	8r	8r	2gg
8r	8G	8e-	.
8C	8r	8r	.
8r	8G	8e-	.
8C	8r	8r	16ff
.	.	.	16ee-
8r	8e-	8g	16dd
.	.	.	16cc
=15	=15	=15	=15
8F	8r	8r	8cc
8r	8c	8a-	8aa-
8F	8r	8r	[2aa-
8r	8c	8a-	.
8E-	8r	8r	.
8r	8c	8a-	.
=16	=16	=16	=16
8D	8r	8r	16aa-]
.	.	.	16ff
8r	8B-	8a-	16dd
.	.	.	16b-
8D	8r	8r	16a-
.	.	.	16f
8r	8B-	8a-	16d
.	.	.	16B-
8D	8r	8r	16A-
.	.	.	32G
.	.	.	32A-
8r	8B-	8a-	16f
.	.	.	16A-
=17	=17	=17	=17
8E-	8r	8r	8G
8r	8B-	8g	8bb-
8E-	8r	8r	4.bb-
8r	8B-	8g	.
8GG	8r	8r	.
8r	8e-	8b-	16aa-
.	.	.	16gg
=18	=18	=18	=18
8AA-	8r	8r	[12..ff
8r	8e-	8cc	.
.	.	.	96ff]
.	.	.	32aa-
.	.	.	32gg
.	.	.	32ff
8AA-	8r	8r	4.ccc
8r	8e-	8cc	.
8AA	8r	8r	.
8r	8f	8cc	8ee-
=19	=19	=19	=19
8BB-	8r	8r	4dd
8r	8d	8b-	.
8BB-	8r	8r	4.aa-
8r	8d	8f	.
8BB-	8r	8r	.
8r	8f	8a-	16ff
.	.	.	16dd
=20	=20	=20	=20
8BB-	8r	8r	8ee-
8r	8e-	8g	8bb-
8BB-	8r	8r	4.bb-
8r	8e-	8g	.
8BB-	8r	8r	.
8r	8g	8b-	16gg
.	.	.	16ee
=21	=21	=21	=21
8BB-	8r	8r	8ff
8r	8f	8a-	8aa-
8BB-	8r	8r	4.ccc
8r	8f	8a-	.
8BB-	8r	8r	.
8r	8d	8a-	32bb-
.	.	.	32aa-
.	.	.	32gg
.	.	.	32ff
=22	=22	=22	=22
8E-	8r	8r	8gg
8r	8e-	8g	16eee-
.	.	.	16ddd-
8G	8r	8r	2ddd-
8r	8e-	8b-	.
8G	8r	8r	.
8r	8e-	8b-	.
=23	=23	=23	=23
8A-	8r	8r	8ccc
8r	8e	8cc	8eee
8A-	8r	8r	8fff
8r	8f	8cc	8ggg
8A-	8r	8r	8aaa-
8r	8f	8cc	8fff
=24	=24	=24	=24
4.A-	4.f	4.b-	4eee-
.	.	.	8ddd
4r	4r	4r	8.r
.	.	.	16d
8GG	8e-	8b-	16e-
.	.	.	16ee-
=25	=25	=25	=25
8AA-	8r	8r	8cc
8r	8e-	8cc	16b-
.	.	.	16a-
8BB-	8r	8r	4g
8r	8B-	8e-	.
8BB-	8r	8r	4f
8r	8B-	8d	.
=26	=26	=26	=26
8E-	8r	8r	4.e-
8r	8B-	8d-	.
8E-	4.A-	4.c	.
8r	.	.	16a-
.	.	.	16g
8E-	.	.	16a-
.	.	.	16f
8r	8F	8A-	16e-
.	.	.	16d
=27	=27	=27	=27
8EE-	8E-	8G	4.e-
8r	8B-	8d-	.
8EE-	4.A-	4.c	.
8r	.	.	16ee-
.	.	.	16cc
8EE-	.	.	16b-
.	.	.	16a-
8r	8d	8A-	16g
.	.	.	16f
=28	=28	=28	=28
4.EE-	4d	4A-	4f
.	8e-	8G	8e-
8F	4.r	4.r	4.r
8E-	.	.	.
8D	.	.	.
=29	=29	=29	=29
8C	8r	8r	2gg
8r	8e-	8g	.
8C	8r	8r	.
8r	8e-	8g	.
8C	8r	8r	16ff
.	.	.	16ee-
8r	8e-	8g	16dd
.	.	.	16cc
=30	=30	=30	=30
8D	8r	8r	8b
8r	8B	8f	8aa-
8D	8r	8r	[6..aa-
8r	8B	8f	.
8D	8r	8r	.
.	.	.	48aa-]
.	.	.	32gg
.	.	.	32ff
8r	8B	8f	32ee-
.	.	.	32dd
.	.	.	32cc
.	.	.	32b
=31	=31	=31	=31
8E-	8r	8r	8cc
8r	8c	8g	32cc
.	.	.	32b
.	.	.	32cc
.	.	.	32dd
8E-	8r	8r	8ee-
8r	8c	8g	8cc
8E-	8r	8r	8g
8r	8c	8g	8cc
=32	=32	=32	=32
8F	8r	8r	8a-
8r	8c	8a-	16g
.	.	.	16f
8G	8r	8r	8.e-
8r	8c	8e-	.
.	.	.	32d
.	.	.	32e-
8GG	8r	8r	16f
.	.	.	16d
8r	8d	8f	16c
.	.	.	16B
=33	=33	=33	=33
8C	8r	8r	8.c
8r	8c	8e-	.
.	.	.	32B
.	.	.	32c
8C	8r	8r	8G
8r	8e-	8g	4.r
8G	8r	8r	.
8r	8d	8f	.
=34	=34	=34	=34
8C	8r	8r	2gg
8r	8G	8e-	.
8C	8r	8r	.
8r	8G	8e-	.
8C	8r	8r	16ff
.	.	.	16ee-
8r	8e-	8g	16dd
.	.	.	16cc
=35	=35	=35	=35
8F	8r	8r	8cc
8r	8c	8a-	8aa-
8F	8r	8r	[2aa-
8r	8c	8a-	.
8E-	8r	8r	.
8r	8c	8a-	.
=36	=36	=36	=36
8D	8r	8r	16aa-]
.	.	.	32gg
.	.	.	32ff
8r	8B-	8a-	32ee-
.	.	.	32dd
.	.	.	32cc
.	.	.	32b-
8D	8r	8r	32a-
.	.	.	32g
.	.	.	32f
.	.	.	32e-
8r	8B-	8a-	32d
.	.	.	32c
.	.	.	32B-
.	.	.	32A
8D	8r	8r	8B-
8r	8B-	8a-	8A-
=37	=37	=37	=37
8E-	8r	8r	32G
.	.	.	32B-
.	.	.	32d
.	.	.	32e-
8r	8B-	8g	32g
.	.	.	32b-
.	.	.	32ee-
.	.	.	32gg
8E-	8r	8r	[6..bb-
8r	8B-	8g	.
8GG	8r	8r	.
.	.	.	48bb-]
.	.	.	16bb-
8r	8e-	8b-	16aa-
.	.	.	16gg
=38	=38	=38	=38
8AA-	8r	8r	32ff
.	.	.	32ee
.	.	.	32gg
.	.	.	32ff
8r	8e-	8cc	32aa-
.	.	.	32gg
.	.	.	32bb-
.	.	.	32aa-
8AA-	8r	8r	6..ccc
8r	8e-	8cc	.
8AA	8r	8r	.
.	.	.	24bb-
.	.	.	24aa
8r	8f	8cc	24gg
.	.	.	24ff
.	.	.	24ee-
=39	=39	=39	=39
8BB-	8r	8r	8dd
8r	8d	8b-	8aa-
8BB-	8r	8r	6..aa-
8r	8d	8f	.
8BB-	8r	8r	.
.	.	.	24ff
.	.	.	24dd
8r	8f	8a-	24ff
.	.	.	24dd
.	.	.	24a-
=40	=40	=40	=40
8BB-	8r	8r	24g
.	.	.	24b-
.	.	.	24dd
8r	8e-	8g	24ee-
.	.	.	24gg
.	.	.	24bb-
8BB-	8r	8r	4.bb-
8r	8e-	8g	.
8BB-	8r	8r	.
8r	8g	8b-	32aa-
.	.	.	32gg
.	.	.	32ff
.	.	.	32ee
=41	=41	=41	=41
8BB-	8r	8r	32ff
.	.	.	32gg
.	.	.	32ff
.	.	.	32gg
8r	8f	8a-	32aa-
.	.	.	32bb-
.	.	.	32aa-
.	.	.	32bb-
8BB-	8r	8r	4.ccc
8r	8f	8a-	.
8BB-	8r	8r	.
8r	8d	8a-	32bb-
.	.	.	32aa-
.	.	.	32gg
.	.	.	32ff
=42	=42	=42	=42
8E-	8r	8r	16gg
.	.	.	16ee-
8r	8e-	8g	16eee-
.	.	.	16ddd-
8G	8r	8r	2ddd-
8r	8e-	8b-	.
8G	8r	8r	.
8r	8e-	8b-	.
=43	=43	=43	=43
8A-	8r	8r	8ccc
8r	8e	8cc	8eee
8A-	8r	8r	8fff
8r	8f	8cc	8ggg
8A-	8r	8r	8aaa-
8r	8f	8cc	8fff
=44	=44	=44	=44
4.A-	4.f	4.b-	16eee-
.	.	.	32ddd
.	.	.	32fff
.	.	.	32aaa-
.	.	.	32fff
.	.	.	32ddd
.	.	.	32bb-
.	.	.	32aa-
.	.	.	32bb-
.	.	.	32ddd
.	.	.	32fff
4r	4r	4r	32aaa-
.	.	.	64fff
.	.	.	64ddd
.	.	.	64bb-
.	.	.	64aa-
.	.	.	64bb-
.	.	.	64ddd
.	.	.	64fff
.	.	.	64aaa-
.	.	.	64fff
.	.	.	64ddd
.	.	.	64bb-
.	.	.	64aa-
.	.	.	32r
8GG	8e-	8b-	64d
.	.	.	64e-
.	.	.	64d
.	.	.	64e-
.	.	.	32dd
.	.	.	32ee-
=45	=45	=45	=45
8AA-	8r	8r	8cc
8r	8e-	8cc	16b-
.	.	.	16a-
8BB-	8r	8r	4g
8r	8B-	8e-	.
8BB-	8r	8r	4f
8r	8B-	8d	.
=46	=46	=46	=46
8E-	8r	8r	2.e-
8r	8G	8B-	.
8E-	8r	8r	.
8r	8G	8B-	.
8D-	8r	8r	.
8r	8G	8B-	.
=47	=47	=47	=47
8C	8r	8r	4.e
8r	8G	8B-	.
8C	8r	8r	.
8r	8G	8B-	8dd-
8C	8r	8r	8cc
8r	8G	8B-	8e
=48	=48	=48	=48
8F	8r	8r	2.f
8r	8A-	8A-	.
8F	8r	8r	.
8r	8A-	8c	.
8E-	8r	8r	.
8r	8A	8c	.
=49	=49	=49	=49
8D	8r	8r	4.f#
8r	8A	8c	.
8D	8r	8r	.
8r	8A	8c	8ee-
8D	8r	8r	8dd
8r	8A	8c	8f#
=50	=50	=50	=50
8G	8r	8r	4g
8r	8G	8B	.
8G	8r	8r	4.ff
8r	8B	8d	.
8G	8r	8r	.
8r	8d	8f	16dd
.	.	.	16b
=51	=51	=51	=51
8G	8r	8r	8cc
8r	8c	8e-	8gg
8G	8r	8r	4.gg
8r	8c	8e-	.
8G	8r	8r	.
8r	8e-	8g	32ff
.	.	.	32ee-
.	.	.	32dd
.	.	.	32cc
=52	=52	=52	=52
8G	8r	8r	8b
8r	8d	8f	8aa-
8G	8r	8r	4.aa-
8r	8d	8f	.
8G	8r	8r	.
8r	8B	8f	32gg
.	.	.	32ff
.	.	.	32ee-
.	.	.	32dd
=53	=53	=53	=53
8C	8r	8r	16ee-
.	.	.	16cc
8r	8c	8e-	16ccc
.	.	.	16bb-
8E	8r	8r	2bb-
8r	8c	8g	.
8E	8r	8r	.
8r	8c	8g	.
=54	=54	=54	=54
8F	8r	8r	8aa-
8r	8c	8a-	8gg
8F	8r	8r	8ff
8r	8c	8a-	8ee-
8F	8r	8r	8dd
8r	8d	8a-	8cc
=55	=55	=55	=55
4.F	4.d	4.g	4cc
.	.	.	8b
4r	4r	4r	8.r
.	.	.	16b
8E-	8c	8g	16cc
.	.	.	16ccc
=56	=56	=56	=56
8F	8r	8r	8aa-
8r	8a-	8cc	16gg
.	.	.	16ff
8G	8r	8r	4ee-
8r	8e-	8cc	.
8GG	8r	8r	4dd-
8r	8e-	8b-	.
=57	=57	=57	=57
8AA-	8r	8r	[2.cc
8r	8e-	8a-	.
8GG	8r	8r	.
8r	8cc	8ee-	.
8FF#	8r	8r	.
8r	8ee-	8ccc	.
=58	=58	=58	=58
4GG	4G	4G	4cc]
2r	2r	2r	2dd
=59	=59	=59	=59
8C	8r	8r	4.cc
8r	8c	8cc	.
4E-	8r	8r	.
.	8E-	4c	8g
8F	8F	.	8a-
8G	8G	[8f	8B
=60	=60	=60	=60
4.A-	4.A-	4f]	4B
.	.	8e-	8c
8E-	8E-	4c	8g
8F	8F	.	8a-
8G	8F	8d	8B
=61	=61	=61	=61
4C	4F	4d	4B
8CC	8E-	8c	8c
4.r	4.r	4.r	4.r
==	==	==	==
*-	*-	*-	*-
!!!RWG1: This file contains only pitch and duration data.
!!!RWG2: Transposing instruments are not transposed.
!!!RWG3: Spines may have incompatible meters.
!!!RWG4: Durations of rests and tied notes may be interpreted.
!!!RWG: Key is interpreted using the Humdrum key tool.
!!!AFT: stage1
!!!END: 1997/04/15
!!!KEY: 2572776765
!!!EMD: Converted from MuseData to Humdrum Dec 16, 2000, by Andreas Kornstaedt using muse2kern.
!!!EMD: Manual editing by Craig Sapp, Nov 2001
